icons/linear-ele-media-picture-camera.svg

<svg xmlns="http://www.w3.org/2000/svg" width="32px" height="32px" viewBox="0 0 32 32" version="1.1">
    <title>linear-ele-media-picture-camera</title>
    <g id="linear-ele-media-picture-camera" stroke-width="1" fill-rule="evenodd">
        <path d="M21,3 C21.3787721,3 21.7250352,3.21400238 21.8944272,3.5527864 L23.618,7 L29,7 C29.5522847,7 30,7.44771525 30,8 L30,28 C30,28.5522847 29.5522847,29 29,29 L3,29 C2.44771525,29 2,28.5522847 2,28 L2,8 C2,7.44771525 2.44771525,7 3,7 L8.381,7 L10.1055728,3.5527864 C10.2749648,3.21400238 10.6212279,3 11,3 L21,3 Z M28,9 L4,9 L4,27 L28,27 L28,9 Z M16,11 C19.8659932,11 23,14.1340068 23,18 C23,21.8659932 19.8659932,25 16,25 C12.1340068,25 9,21.8659932 9,18 C9,14.1340068 12.1340068,11 16,11 Z M16,13 C13.2385763,13 11,15.2385763 11,18 C11,20.7614237 13.2385763,23 16,23 C18.7614237,23 21,20.7614237 21,18 C21,15.2385763 18.7614237,13 16,13 Z M20.381,5 L11.618,5 L10.617,7 L21.381,7 L20.381,5 Z" id="&#24418;&#29366;" fill-rule="nonzero" />
    </g>
</svg>

<svg xmlns="http://www.w3.org/2000/svg" viewBox="0 0 32 32"><path fill="currentColor" d="M21 3a1 1 0 0 1 .894.553L23.618 7H29a1 1 0 0 1 1 1v20a1 1 0 0 1-1 1H3a1 1 0 0 1-1-1V8a1 1 0 0 1 1-1h5.381l1.725-3.447A1 1 0 0 1 11 3zm7 6H4v18h24zm-12 2a7 7 0 1 1 0 14 7 7 0 0 1 0-14m0 2a5 5 0 1 0 0 10 5 5 0 0 0 0-10m4.381-8h-8.763l-1.001 2h10.764z"/></svg>
